X:1
T:sound of silence
M:4/4
L:1/8
V:1
Q:1/4=80
K:C
|z2A,A,CCEE|D8|zG,G,G,B,B,DD|C8|
|zCCCEEGG|A2-AG-G4|zCCCEEGG|A2-AG-G4|
|z2CCAAAA|A2ABcccc|BA3G4-|G2AGE4-|
|E4zCCCC|G6zB,|CA,3-A,4|